X: 27920
T: Mountain Road, The
R: reel
M: 4/4
K: Dmajor
F2 AFBF AF|F2 AF EFDE|F2 AF BFAF|G2 FG EFGE|
F2 AFBF AF|F2 AF EFDE|FA A2 BAFB|ABde fd d2||
dcdB ADFA|dcde fgfe|dcdB ADFA|G2 FG EFGE|
dcdB ADFA|dcde fgfe|dcdB ADFA|G2 FG EFGE||

